!!!!SEGMENT: pl-kk--kk-i-328--001-008_constanzi--beatus-vir-peccator-videbit.krn
!!!cenid: 17xx:2146
!!!COM: Constanzi
!!!COM-rismID: pe50046616
!!!CDT:
!!!CNT:
!!!OPR: Beatus vir
!!!OTL: Peccator videbit
!!!OMV: 008
!!!PDT:
!!!AGN: Sacred
!!!YEC: Copyright 2022 Narodowy Instytut Fryderyka Chopina (https://polishscores.org)
!!!YEM: License CC-BY-4.0 (https://creativecommons.org/licenses/by/4.0)
!!!SMS-siglum: PL-Kk
!!!SMS-shelfmark: Kk.I.328
!!!SMS-shelfwork: 001-008 M
!!!SMS-variant:
!!!SMS-altvar:
!!!NIFC-rismSourceID: 1001145915
!!!NIFC-rismChildID: 1001145915
!!!NIFC-islandoraID: pl-kk:5487
!!!URL-pdf-islandora: https://repozytorium.nifc.pl/islandora/object/pl-kk%3A5487/datastream/PDF/view
!!!URL-scan: https://polish.musicsources.pl/pl/lokalizacje/galeria/rekopisy/5947 @EN{Scan on Polish Music Sources Website} @PL{Skany w portalu Dziedzictwo Muzyki Polskiej w otwartym dostępie}
!!!IIIF:
!!!ONB-nifc: UWAGA: części Beatus vir: 1. Beatus vir, 2. Potens in terra, 3. Gloria et divitiae, 4. Exortum est 5. Iucundus homo, 6. In memoria, 7. Paratum cor eius, 8. Peccator videbit, 9. Gloria patri
!!!AIN: 2 alto 1 empty 1 organ 1 tenor 2 vox
!!!key:
**kern	**fba	**kern	**kern	**kern	**kern	**kern	**kern	**text
*	*	*group2	*group2	*group2	*group2	*group1	*group1	*
*part7	*	*part6	*part5	*part4	*part3	*part2	*part1	*
*staff7	*	*staff6	*staff5	*staff4	*staff3	*staff2	*staff1	*
*Iorgan	*	*Iempty	*Itenor	*Ialto	*Ivox	*Ialto	*Ivox	*
*I"Organo	*	*I"Baſso di ripieno	*I"Tenore di ripieno	*I"Alto di ripieno	*I"Canto di ripieno	*I"Alto à 2.e di Concerto	*I"Canto à 2.e di concerto	*
*I'org	*	*I'B rip	*I'T rip	*I'A rip	*I'S rip	*I'A conc	*I'S conc	*
*clefF4	*	*clefF4	*clefC4	*clefC3	*clefC1	*clefC3	*clefC1	*
*k[]	*	*k[]	*k[]	*k[]	*k[]	*k[]	*k[]	*
*C:	*	*C:	*C:	*C:	*C:	*C:	*C:	*
*M2/2	*	*M2/2	*M2/2	*M2/2	*M2/2	*M2/2	*M2/2	*
*met(c|)	*	*met(c|)	*met(c|)	*met(c|)	*met(c|)	*met(c|)	*met(c|)	*
*all\right	*	*	*	*	*	*	*all\right	*
!LO:TX:a:B:t=And.e	!	!	!	!	!	!	!	!
!LO:TX:a:t=Canto Solo	!	!	!	!	!	!	!	!
!LO:TX:a:t=Rit.lo	!	!LO:TX:a:t=Peccator uidebit Tacet	!LO:TX:a:t=Peccator uidebit Tacet	!LO:TX:a:t=Peccator uidebit Tacet	!LO:TX:a:t=Peccator uidebit Tacet	!LO:TX:a:t=Peccator uidebit Tacet	!LO:TX:a:B:t=And.e	!
4G\	.	4ryy	4ryy	4ryy	4ryy	4ryy	4r	.
=1	=1	=1	=1	=1	=1	=1	=1	=1
!	!	!	!	!	!	!	!LO:TX:b:t=3	!
8c\L	.	1ryy	1ryy	1ryy	1ryy	1ryy	0r	.
8G\J	.	.	.	.	.	.	.	.
*2\right	*	*	*	*	*	*	*	*
2G\	.	.	.	.	.	.	.	.
*Xtuplet	*	*	*	*	*	*	*	*
!LO:TUP:a:problem=klamra łukowa	!	!	!	!	!	!	!	!
12A\L	.	.	.	.	.	.	.	.
12G\	.	.	.	.	.	.	.	.
12F\J	.	.	.	.	.	.	.	.
=2	=2	=2	=2	=2	=2	=2	=2	=2
!LO:TUP:a:problem=klamra łukowa	!	!	!	!	!	!	!	!
12E\L	.	1ryy	1ryy	1ryy	1ryy	1ryy	.	.
12F\	.	.	.	.	.	.	.	.
12G\J	.	.	.	.	.	.	.	.
12F\L	.	.	.	.	.	.	.	.
12E\	.	.	.	.	.	.	.	.
12D\J	.	.	.	.	.	.	.	.
4C\	.	.	.	.	.	.	.	.
4c\	.	.	.	.	.	.	.	.
!LO:LB:g=original	!	!	!	!	!	!	!	!
=3	=3	=3	=3	=3	=3	=3	=3	=3
4F\	.	1ryy	1ryy	1ryy	1ryy	1ryy	1r	.
8E\L	.	.	.	.	.	.	.	.
8D\J	.	.	.	.	.	.	.	.
4G\	.	.	.	.	.	.	.	.
4GG/	.	.	.	.	.	.	.	.
=4	=4	=4	=4	=4	=4	=4	=4	=4
8C/L	.	1ryy	1ryy	1ryy	1ryy	1ryy	2r	.
8BB/J	.	.	.	.	.	.	.	.
2C/	.	.	.	.	.	.	.	.
.	.	.	.	.	.	.	4r	.
!LO:TX:a:t=C.o	!	!	!	!	!	!	!	!
4r	.	.	.	.	.	.	4g\	Pec-
=5	=5	=5	=5	=5	=5	=5	=5	=5
4C/	.	1ryy	1ryy	1ryy	1ryy	1ryy	8cc\L	-ca-
.	.	.	.	.	.	.	8g\J	.
*	*	*	*	*	*	*	*2\right	*
4c\	.	.	.	.	.	.	2g\	-tor
4B\	.	.	.	.	.	.	.	.
4G\	7	.	.	.	.	.	4f\	ui-
!	!	!	!	!	!	!	!LO:LB:g=original	!
=6	=6	=6	=6	=6	=6	=6	=6	=6
*	*	*	*	*	*	*	*Xtuplet	*
4r	.	1ryy	1ryy	1ryy	1ryy	1ryy	12e/L	-de-
.	.	.	.	.	.	.	12f/	.
.	.	.	.	.	.	.	12g/J	.
4C\	.	.	.	.	.	.	2g/	-bit
4E\	.	.	.	.	.	.	.	.
4C\	.	.	.	.	.	.	4cc\	ui-
!LO:LB:g=original	!	!	!	!	!	!	!	!
=7	=7	=7	=7	=7	=7	=7	=7	=7
.	.	.	.	.	.	.	8qqb/	.
4F\	.	1ryy	1ryy	1ryy	1ryy	1ryy	4a\	-de-
4F\	.	.	.	.	.	.	8f\L	.
.	.	.	.	.	.	.	8g\J	.
4F\	.	.	.	.	.	.	4a\	.
4F\	.	.	.	.	.	.	4cc\	.
=8	=8	=8	=8	=8	=8	=8	=8	=8
.	.	.	.	.	.	.	8qqa/	.
4E\	6	1ryy	1ryy	1ryy	1ryy	1ryy	4g\	.
4E\	.	.	.	.	.	.	8e/L	.
.	.	.	.	.	.	.	8f/J	.
4E\	.	.	.	.	.	.	4g/	.
4E\	.	.	.	.	.	.	4cc\	.
=9	=9	=9	=9	=9	=9	=9	=9	=9
*	*below	*	*	*	*	*	*	*
4D\	.	1ryy	1ryy	1ryy	1ryy	1ryy	4.cc\	.
4D\	.	.	.	.	.	.	.	.
.	.	.	.	.	.	.	16b\LL	.
.	.	.	.	.	.	.	16cc\JJ	.
!	!	!	!	!	!	!	!LO:LB:g=original	!
4GG/	7	.	.	.	.	.	4dd\	.
4GG/	.	.	.	.	.	.	4f/	.
=10	=10	=10	=10	=10	=10	=10	=10	=10
*	*above	*	*	*	*	*	*	*
4C\	6 4	1ryy	1ryy	1ryy	1ryy	1ryy	2f/	.
4C\	.	.	.	.	.	.	.	.
4C\	5 3	.	.	.	.	.	2e/	-bit
4C\	.	.	.	.	.	.	.	.
!LO:PB:g=original	!	!	!	!	!	!	!	!
=11	=11	=11	=11	=11	=11	=11	=11	=11
4C\	.	1ryy	1ryy	1ryy	1ryy	1ryy	4ee\	et
!	!	!	!	!	!	!	!LO:TUP:a:problem=klamra łukowa	!
4c\	.	.	.	.	.	.	12ee\L	i-
.	.	.	.	.	.	.	12dd\	.
.	.	.	.	.	.	.	12cc\J	.
!	!	!	!	!	!	!	!LO:TUP:a:problem=klamra łukowa	!
4c\	.	.	.	.	.	.	12cc\L	-ra-
.	.	.	.	.	.	.	12b\	.
.	.	.	.	.	.	.	12a\J	.
!	!	!	!	!	!	!	!LO:TUP:a:problem=klamra łukowa	!
4c\	.	.	.	.	.	.	12a\L	-sce-
.	.	.	.	.	.	.	12cc\	.
.	.	.	.	.	.	.	12ee\J	.
!	!	!	!	!	!	!	!LO:LB:g=original	!
=12	=12	=12	=12	=12	=12	=12	=12	=12
4B\	.	1ryy	1ryy	1ryy	1ryy	1ryy	4dd\	.
!	!	!	!	!	!	!	!LO:TUP:a:problem=klamra łukowa	!
4B\	.	.	.	.	.	.	12dd\L	.
.	.	.	.	.	.	.	12cc\	.
.	.	.	.	.	.	.	12b\J	.
!	!	!	!	!	!	!	!LO:TUP:a:problem=klamra łukowa	!
4B\	.	.	.	.	.	.	12b\L	.
.	.	.	.	.	.	.	12a\	.
.	.	.	.	.	.	.	12g\J	.
!	!	!	!	!	!	!	!LO:TUP:a:problem=klamra łukowa	!
4B\	.	.	.	.	.	.	12g\L	.
.	.	.	.	.	.	.	12b\	.
.	.	.	.	.	.	.	12dd\J	.
=13	=13	=13	=13	=13	=13	=13	=13	=13
!	!	!	!	!	!	!	!LO:TUP:a:problem=klamra łukowa	!
4A\	.	1ryy	1ryy	1ryy	1ryy	1ryy	12cc\L	.
.	.	.	.	.	.	.	12b\	.
.	.	.	.	.	.	.	12a\J	.
4A\	.	.	.	.	.	.	12g/L	.
.	.	.	.	.	.	.	12f/	.
.	.	.	.	.	.	.	12e/J	.
!	!	!	!	!	!	!	!LO:TX:t=P:problem=mixed beam	!
4F#X\	.	.	.	.	.	.	12d/L	.
.	.	.	.	.	.	.	12cc\	.
.	.	.	.	.	.	.	12a\J	.
4F#\	.	.	.	.	.	.	12ee\L	.
.	.	.	.	.	.	.	12dd\	.
.	.	.	.	.	.	.	12cc\J	.
!	!	!	!	!	!	!	!LO:LB:g=original	!
=14	=14	=14	=14	=14	=14	=14	=14	=14
4G\	.	1ryy	1ryy	1ryy	1ryy	1ryy	12b\L	.
.	.	.	.	.	.	.	12dd\	.
.	.	.	.	.	.	.	12cc\J	.
4G\	.	.	.	.	.	.	12b\L	.
.	.	.	.	.	.	.	12a\	.
.	.	.	.	.	.	.	12g\J	.
4D\	#3	.	.	.	.	.	12f#X/L	.
.	.	.	.	.	.	.	12a/	.
.	.	.	.	.	.	.	12g/J	.
4D\	.	.	.	.	.	.	12f#X/L	.
.	.	.	.	.	.	.	12e/	.
.	.	.	.	.	.	.	12d/J	.
!LO:LB:g=original	!	!	!	!	!	!	!	!
=15	=15	=15	=15	=15	=15	=15	=15	=15
!	!	!	!	!	!	!	!LO:TUP:a:problem=klamra łukowa	!
4G\	.	1ryy	1ryy	1ryy	1ryy	1ryy	12b\L	.
.	.	.	.	.	.	.	12dd\	.
.	.	.	.	.	.	.	12cc\J	.
!	!	!	!	!	!	!	!LO:TUP:a:problem=klamra łukowa	!
4G\	.	.	.	.	.	.	12b\L	.
.	.	.	.	.	.	.	12a\	.
.	.	.	.	.	.	.	12g\J	.
!	!	!	!	!	!	!	!LO:TUP:a:problem=klamra łukowa	!
4c\	.	.	.	.	.	.	12ee\L	.
.	.	.	.	.	.	.	12dd\	.
.	.	.	.	.	.	.	12cc\J	.
4c#X\	.	.	.	.	.	.	12b\L	.
.	.	.	.	.	.	.	12a\	.
.	.	.	.	.	.	.	12g\J	.
!	!	!	!	!	!	!	!LO:LB:g=original	!
=16	=16	=16	=16	=16	=16	=16	=16	=16
*	*below	*	*	*	*	*	*	*
4d\	#3	1ryy	1ryy	1ryy	1ryy	1ryy	4.f#X/	.
4D\	.	.	.	.	.	.	.	.
.	.	.	.	.	.	.	8e/	.
4D\	.	.	.	.	.	.	2d/	-tur
4D\	.	.	.	.	.	.	.	.
=17	=17	=17	=17	=17	=17	=17	=17	=17
8B\L	.	1ryy	1ryy	1ryy	1ryy	1ryy	8b\L	den-
8d\	.	.	.	.	.	.	8dd\J	.
8G\	.	.	.	.	.	.	8g\	-ti-
8B\J	.	.	.	.	.	.	8b\	-bus
8c\L	.	.	.	.	.	.	8cc\L	su-
8A\	.	.	.	.	.	.	8a\	.
8F\	.	.	.	.	.	.	8f\J	.
8D\J	.	.	.	.	.	.	8d/	-is
!LO:LB:g=original	!	!	!	!	!	!	!	!
=18	=18	=18	=18	=18	=18	=18	=18	=18
8G\L	.	1ryy	1ryy	1ryy	1ryy	1ryy	8b\L	fre-
8d\	.	.	.	.	.	.	8dd\J	.
8G\	.	.	.	.	.	.	8g\L	-met
8B\J	.	.	.	.	.	.	8b\J	.
8c\L	.	.	.	.	.	.	8cc\L	et
8A\	.	.	.	.	.	.	8a\J	.
8F\	.	.	.	.	.	.	8f/L	ta-
8D\J	.	.	.	.	.	.	8d/J	.
!	!	!	!	!	!	!	!LO:LB:g=original	!
=19	=19	=19	=19	=19	=19	=19	=19	=19
*	*above	*	*	*	*	*	*	*
!	!	!	!	!	!	!	!LO:TUP:a:problem=klamra łukowa	!
4G\	.	1ryy	1ryy	1ryy	1ryy	1ryy	12b\L	-be-
.	.	.	.	.	.	.	12dd\	.
.	.	.	.	.	.	.	12cc\J	.
!	!	!	!	!	!	!	!LO:TUP:a:problem=klamra łukowa	!
4GG/	.	.	.	.	.	.	12b\L	.
.	.	.	.	.	.	.	12a\	.
.	.	.	.	.	.	.	12g\J	.
4C/	6	.	.	.	.	.	2aM\	.
4D\	.	.	.	.	.	.	.	.
=20	=20	=20	=20	=20	=20	=20	=20	=20
*	*below	*	*	*	*	*	*	*
4E\	.	1ryy	1ryy	1ryy	1ryy	1ryy	4g\	-scet
2c\	3	.	.	.	.	.	2ee\	fre-
4B\	3	.	.	.	.	.	4dd\	-met
=21	=21	=21	=21	=21	=21	=21	=21	=21
!	!	!	!	!	!	!	!LO:TUP:a:problem=klamra łukowa	!
4A\	.	1ryy	1ryy	1ryy	1ryy	1ryy	12cc\L	et
.	.	.	.	.	.	.	12b\	.
.	.	.	.	.	.	.	12a\J	.
4G\	.	.	.	.	.	.	12b\L	ta-
.	.	.	.	.	.	.	12a\	.
.	.	.	.	.	.	.	12g\J	.
4C\	.	.	.	.	.	.	2aM\	-be-
4D\	.	.	.	.	.	.	.	.
!LO:LB:g=original	!	!	!	!	!	!	!LO:PB:g=original	!
=22	=22	=22	=22	=22	=22	=22	=22	=22
!LO:TX:a:t=Rito.r.lo.	!	!	!	!	!	!	!	!
!LO:TUP:a:problem=klamra łukowa	!	!	!	!	!	!	!	!
12G\L	.	1ryy	1ryy	1ryy	1ryy	1ryy	4g\	-ſcet
12F\	.	.	.	.	.	.	.	.
12E\J	.	.	.	.	.	.	.	.
2D\	.	.	.	.	.	.	4r	.
.	.	.	.	.	.	.	2r	.
4C\	.	.	.	.	.	.	.	.
=23	=23	=23	=23	=23	=23	=23	=23	=23
!LO:TUP:a:problem=klamra łukowa	!	!	!	!	!	!	!LO:TX:a:t=3	!
12BB/L	.	1ryy	1ryy	1ryy	1ryy	1ryy	0r	.
12C/	.	.	.	.	.	.	.	.
12D/J	.	.	.	.	.	.	.	.
!LO:TUP:a:problem=klamra łukowa	!	!	!	!	!	!	!	!
12C/L	.	.	.	.	.	.	.	.
12BB/	.	.	.	.	.	.	.	.
12AA/J	.	.	.	.	.	.	.	.
4GG/	.	.	.	.	.	.	.	.
4G\	.	.	.	.	.	.	.	.
=24	=24	=24	=24	=24	=24	=24	=24	=24
4c\	.	1ryy	1ryy	1ryy	1ryy	1ryy	.	.
8B\L	.	.	.	.	.	.	.	.
8c\J	.	.	.	.	.	.	.	.
4d\	.	.	.	.	.	.	.	.
4D/	.	.	.	.	.	.	.	.
!LO:LB:g=original	!	!	!	!	!	!	!	!
=25	=25	=25	=25	=25	=25	=25	=25	=25
8G\L	.	1ryy	1ryy	1ryy	1ryy	1ryy	1r	.
8F\J	.	.	.	.	.	.	.	.
2G\	.	.	.	.	.	.	.	.
4r	.	.	.	.	.	.	.	.
=26	=26	=26	=26	=26	=26	=26	=26	=26
!LO:TX:a:t=C.o	!	!	!	!	!	!	!	!
4GG/	.	1ryy	1ryy	1ryy	1ryy	1ryy	8g\L	de-
.	.	.	.	.	.	.	8b\J	.
4G\	.	.	.	.	.	.	2b\	-si-
4G\	.	.	.	.	.	.	.	.
4G\	.	.	.	.	.	.	8dd\L	.
.	.	.	.	.	.	.	8b\J	.
=27	=27	=27	=27	=27	=27	=27	=27	=27
*	*above	*	*	*	*	*	*	*
4D\	4	1ryy	1ryy	1ryy	1ryy	1ryy	8b\	-de-
.	.	.	.	.	.	.	8a\	-ri-
4D\	3	.	.	.	.	.	2.a\	-um
4D\	.	.	.	.	.	.	.	.
4D\	.	.	.	.	.	.	.	.
!	!	!	!	!	!	!	!LO:LB:g=original	!
=28	=28	=28	=28	=28	=28	=28	=28	=28
4D\	7	1ryy	1ryy	1ryy	1ryy	1ryy	8a\L	pec-
.	.	.	.	.	.	.	8cc\J	.
4D\	.	.	.	.	.	.	2cc\	-ca-
4D\	.	.	.	.	.	.	.	.
4D\	.	.	.	.	.	.	12ee\L	.
.	.	.	.	.	.	.	12dd\	.
.	.	.	.	.	.	.	12cc\J	.
!LO:LB:g=original	!	!	!	!	!	!	!	!
=29	=29	=29	=29	=29	=29	=29	=29	=29
4G\	.	1ryy	1ryy	1ryy	1ryy	1ryy	4cc\	-to-
4G\	.	.	.	.	.	.	4b\	-rum
4B\	.	.	.	.	.	.	2dd\	pe-
4B\	.	.	.	.	.	.	.	.
=30	=30	=30	=30	=30	=30	=30	=30	=30
4c\	.	1ryy	1ryy	1ryy	1ryy	1ryy	4e/	-ri-
4B\	.	.	.	.	.	.	8.g\	-bit
.	.	.	.	.	.	.	16b\	pe-
4A\	.	.	.	.	.	.	2cc\	-ri-
4D\	7	.	.	.	.	.	.	.
!	!	!	!	!	!	!	!LO:LB:g=original	!
=31	=31	=31	=31	=31	=31	=31	=31	=31
4G\	.	1ryy	1ryy	1ryy	1ryy	1ryy	4b\	-bit
4Fn\	.	.	.	.	.	.	4r	.
4E\	.	.	.	.	.	.	[2cc\	de-
4D\	.	.	.	.	.	.	.	.
=32	=32	=32	=32	=32	=32	=32	=32	=32
4C\	.	1ryy	1ryy	1ryy	1ryy	1ryy	8cc\L]	.
.	.	.	.	.	.	.	8b-X\	.
4C\	.	.	.	.	.	.	8a\J	.
.	.	.	.	.	.	.	8cc\	-ſi-
4G\	.	.	.	.	.	.	[2b-X\	-de-
4F\	.	.	.	.	.	.	.	.
!LO:LB:g=original	!	!	!	!	!	!	!	!
=33	=33	=33	=33	=33	=33	=33	=33	=33
4E\	6	1ryy	1ryy	1ryy	1ryy	1ryy	4b-\]	.
.	5	.	.	.	.	.	.	.
4E\	.	.	.	.	.	.	8a\	-ri-
!	!	!	!	!	!	!	!LO:SIC:v:s=8b-	!
.	.	.	.	.	.	.	8bny\	-um
.	.	.	.	.	.	.	8qqb/L	.
!	!	!	!	!	!	!	!LO:SIC:v:s=8qqb-L	!
.	.	.	.	.	.	.	8qqcc/J	.
4E\	.	.	.	.	.	.	4dd\	pec-
4E\	.	.	.	.	.	.	8cc\L	-ca-
.	.	.	.	.	.	.	8b-X\J	.
!	!	!	!	!	!	!	!LO:LB:g=original	!
=34	=34	=34	=34	=34	=34	=34	=34	=34
4F\	6	1ryy	1ryy	1ryy	1ryy	1ryy	4b-X\	-to-
.	4	.	.	.	.	.	.	.
4F\	3	.	.	.	.	.	4a\	-ru(m)
4F#X\	6	.	.	.	.	.	[2dd\	de-
4E\	.	.	.	.	.	.	.	.
=35	=35	=35	=35	=35	=35	=35	=35	=35
4D\	#3	1ryy	1ryy	1ryy	1ryy	1ryy	8dd\L]	.
.	.	.	.	.	.	.	8cc\J	.
4D\	.	.	.	.	.	.	8bn\L	-ſi-
.	.	.	.	.	.	.	8cc\J	.
4A\	#6	.	.	.	.	.	[2cc\	-de-
4G\	.	.	.	.	.	.	.	.
=36	=36	=36	=36	=36	=36	=36	=36	=36
4F#X\	5	1ryy	1ryy	1ryy	1ryy	1ryy	4cc\]	.
4F#\	.	.	.	.	.	.	8bn\	-ri-
.	.	.	.	.	.	.	8cc\	-um
.	.	.	.	.	.	.	8qqcc/L	.
.	.	.	.	.	.	.	8qqdd/J	.
4F#\	.	.	.	.	.	.	4ee\	pec-
4F#\	.	.	.	.	.	.	8dd\L	-ca-
.	.	.	.	.	.	.	8cc\J	.
!LO:LB:g=original	!	!	!	!	!	!	!LO:LB:g=original	!
=37	=37	=37	=37	=37	=37	=37	=37	=37
8G\L	.	1ryy	1ryy	1ryy	1ryy	1ryy	4cc\	-to-
8G\	4	.	.	.	.	.	.	.
8G\	3	.	.	.	.	.	4b\	-rum
8G\J	.	.	.	.	.	.	.	.
8G\L	.	.	.	.	.	.	4r	.
8G\	.	.	.	.	.	.	.	.
8G\	.	.	.	.	.	.	4g\	pe-
8G\J	.	.	.	.	.	.	.	.
=38	=38	=38	=38	=38	=38	=38	=38	=38
8G\L	.	1ryy	1ryy	1ryy	1ryy	1ryy	4cc\	-ri-
8G\	6 4	.	.	.	.	.	.	.
8G\	.	.	.	.	.	.	4ee\	.
8G\J	.	.	.	.	.	.	.	.
8G\L	.	.	.	.	.	.	4gg\	-bit
8G\	.	.	.	.	.	.	.	.
8G\	.	.	.	.	.	.	4cc\	pe-
8G\J	.	.	.	.	.	.	.	.
=39	=39	=39	=39	=39	=39	=39	=39	=39
!LO:TX:t=P:problem=mixed beam	!	!	!	!	!	!	!	!
8G\L	6 4	1ryy	1ryy	1ryy	1ryy	1ryy	4cc\	-ri-
8GG/	.	.	.	.	.	.	.	.
8GG/	5 3	.	.	.	.	.	4b\	-bit
8GG/J	.	.	.	.	.	.	.	.
8GG/L	.	.	.	.	.	.	4r	.
8GG/	.	.	.	.	.	.	.	.
8GG/	.	.	.	.	.	.	4d/	pe-
8GG/J	.	.	.	.	.	.	.	.
!LO:LB:g=original	!	!	!	!	!	!	!LO:LB:g=original	!
=40	=40	=40	=40	=40	=40	=40	=40	=40
8GG/L	6 4	1ryy	1ryy	1ryy	1ryy	1ryy	4e/	-ri-
8GG/	.	.	.	.	.	.	.	.
8GG/	.	.	.	.	.	.	4g/	.
8GG/J	.	.	.	.	.	.	.	.
8GG/L	5 3	.	.	.	.	.	4cc\	-bit
8GG/	.	.	.	.	.	.	.	.
8GG/	.	.	.	.	.	.	4e/	pe-
8GG/J	.	.	.	.	.	.	.	.
=41	=41	=41	=41	=41	=41	=41	=41	=41
4GG/	.	1ryy	1ryy	1ryy	1ryy	1ryy	4e/	-ri-
4GG/	.	.	.	.	.	.	4d/	-bit
!	!	!	!	!	!	!	!LO:TX:a:B:t=ad.o	!
2r	.	.	.	.	.	.	4r	.
.	.	.	.	.	.	.	8g/	de-
.	.	.	.	.	.	.	8g/	-si-
=42	=42	=42	=42	=42	=42	=42	=42	=42
*	*below	*	*	*	*	*	*	*
!LO:TX:a:B:t=Ad.	!	!	!	!	!	!	!	!
1E	6	1ryy	1ryy	1ryy	1ryy	1ryy	4cc\	-de-
.	.	.	.	.	.	.	4cc\	-rium
.	.	.	.	.	.	.	4r	.
.	.	.	.	.	.	.	8ee\	pec-
.	.	.	.	.	.	.	8cc\	-ca-
!	!	!	!	!	!	!	!LO:LB:g=original	!
=43	=43	=43	=43	=43	=43	=43	=43	=43
2Fn\	.	1ryy	1ryy	1ryy	1ryy	1ryy	8a\	-to-
.	.	.	.	.	.	.	8a\	-rum
.	.	.	.	.	.	.	8r	.
.	.	.	.	.	.	.	8ff\	pe-
2r	.	.	.	.	.	.	8ff\	-ri-
.	.	.	.	.	.	.	8b\	-bit
.	.	.	.	.	.	.	8r	.
.	.	.	.	.	.	.	8cc\	pe-
=44	=44	=44	=44	=44	=44	=44	=44	=44
4r	.	1ryy	1ryy	1ryy	1ryy	1ryy	8cc\	-ri-
.	.	.	.	.	.	.	8g\	-bit
4G\	.	.	.	.	.	.	4r	.
!LO:TX:b:t=Uolti ſubito	!	!	!	!	!	!	!	!
2C\	.	.	.	.	.	.	2r	.
==	==	==	==	==	==	==	==	==
*-	*-	*-	*-	*-	*-	*-	*-	*-
!!!system-decoration: [g1][g2]s7
!!!RDF**kern: > = above
!!!RDF**kern: < = below
!!!ENC: Andrzej Kubiczek
!!!END: 2021-03-30
!!!ENC: Mateusz Solarz
!!!END: 2021-03-16
